static/logos/marvel-wordmark-color.svg

<svg width="100" height="45" viewBox="0 0 100 45" fill="none" xmlns="http://www.w3.org/2000/svg">
<g clip-path="url(#clip0_1_2058)">
<path d="M85.1466 29.1429C49.2895 26.2857 19.718 35 13.0038 38.2857C9.28952 40 9.00381 42.1429 9.57523 43.2857C10.0038 44.1429 11.8609 44.7143 13.7181 43.7143C28.0038 36 56.718 29.8572 85.1466 31.5714C85.8609 31.5714 86.4323 31 86.4323 30.2857C86.4323 29.7143 85.8609 29.1429 85.1466 29.1429ZM94.0038 18.2857C92.4323 20 90.2895 21.2857 89.5752 20.7143C88.8609 20.1429 89.5752 18 89.5752 18C93.1466 15.7143 100.004 9.85716 100.004 5.28573C100.004 1.14287 96.2895 -0.142848 92.4323 3.7143C89.2895 7.14287 87.0038 11.4286 85.718 16C83.718 18 80.4323 20.5714 77.5752 20.5714C76.0038 20.5714 75.718 19.4286 75.8609 18C78.2895 18 85.1466 16 85.1466 10.2857C85.1466 9.28573 84.718 8.42858 84.0038 7.7143C83.2895 7.00001 82.4323 6.7143 81.4323 6.85716C78.2895 6.85716 74.4323 10 72.4323 14.5714C72.0038 14.4286 71.4323 14.2857 71.0038 14C71.5752 12.8572 71.8609 11.7143 72.2895 10.5714C72.718 8.14287 71.718 6.7143 69.8609 7.00001C68.5752 7.00001 67.1466 8.14287 66.718 10.5714C66.5752 11.8572 66.8609 13.1429 67.2895 14.1429C66.4323 16.8572 63.0038 20.1429 61.8609 20C60.718 19.8572 62.0038 15.1429 63.1466 11.5714C63.8609 10.8572 64.2895 10.1429 64.718 9.14287C65.0038 8.42858 64.8609 7.57144 64.1466 7.28573C62.4323 6.57144 60.4323 7.42858 59.718 9.14287C59.2895 10 58.8609 10.8572 58.4323 11.8572C57.4323 13 56.0038 14.5714 55.5752 14.4286C55.0038 14 57.1466 11.1429 56.8609 9.42858C56.718 8.14287 55.4323 7.14287 54.1466 7.28573C52.1466 7.57144 49.718 11.2857 49.718 11.2857C50.0038 10.5714 50.1466 9.85715 50.2895 9.14287C50.1466 7.7143 47.5752 7.14287 46.2895 9.7143C45.4323 12.1429 44.718 14.7143 44.4323 17.2857C43.8609 18.4286 41.718 21.8572 40.0038 22C38.5752 22.1429 40.2895 15.8572 40.5752 15.5714C41.2895 14.4286 42.2895 12 42.1466 10.8572C42.1466 10.2857 42.0038 9.85715 41.5752 9.57144C41.1466 9.28573 40.5752 9.14287 40.1466 9.28573C39.2895 9.57144 38.5752 10.1429 38.1466 10.8572C37.5752 10.1429 36.5752 9.7143 35.5752 9.85715C29.8609 10.4286 26.2895 20.4286 26.718 25.1429C27.0038 27.7143 28.2895 29.2857 30.4323 28.8572C32.8609 28.5714 34.8609 24.8572 34.8609 24.8572C34.8609 24.8572 35.4323 27.8572 38.1466 27.5714C40.1466 27 41.8609 25.7143 43.1466 24C43.1466 24.1429 43.0038 24.2857 43.0038 24.5714C42.5752 27.1429 46.718 26.8572 47.0038 24.8572C48.2895 15.2857 51.4323 11.4286 52.2895 11.4286C53.0038 11.4286 50.2895 15.8572 51.8609 17.7143C53.1466 19.1429 55.2895 18 57.1466 16.4286C56.8609 17.5714 56.718 18.8572 56.5752 20C56.4323 22.7143 57.4323 24.8572 60.0038 24.7143C63.4323 24.5714 67.0038 20.2857 69.4323 16.2857C70.0038 16.7143 70.718 17 71.4323 17.1429C71.1466 18.1429 71.1466 19.1429 71.1466 20C71.2895 23.1429 73.4323 24.2857 76.0038 24.1429C78.8609 24 82.2895 21.8572 84.5752 19.7143C84.5752 19.8572 84.5752 20 84.4323 20C84.2895 21.5714 84.5752 24.2857 86.718 24.4286C89.1466 24.5714 93.4323 22.1429 95.5752 19.4286C97.1466 18.5714 95.2895 16.8572 94.0038 18.2857ZM96.2895 5.42858C96.5752 5.42858 96.718 5.7143 96.718 6.00001C96.718 8.7143 90.1466 14.2857 90.1466 14.2857C90.1466 14.2857 94.4323 5.42858 96.2895 5.42858ZM80.2895 11C80.5752 11 80.718 11 80.8609 11.2857C81.0038 11.5714 81.0038 11.7143 81.0038 11.8572C81.0038 13.4286 79.0038 14.5714 76.718 14.5714C78.0038 12.7143 79.2895 11 80.2895 11ZM36.0038 15.1429C35.8609 16.7143 33.0038 24 31.5752 24C29.718 24.1429 32.5752 13.8572 35.5752 13.8572C36.1466 13.8572 36.1466 14.2857 36.0038 15.1429ZM11.8609 17.1429C13.7181 17.1429 10.2895 26.7143 10.7181 30.8572C11.1467 35 15.718 33.8572 15.4323 31.4286C14.8609 27.2857 17.718 14.2857 20.4323 14.2857C22.4323 14.2857 18.1466 23.1429 19.0038 28.7143C19.5752 32.2857 24.4323 31.2857 23.8609 28.8572C22.2895 21.5714 27.4323 14.5714 26.718 9.42858C26.4323 7.28573 25.1466 6.14287 23.8609 6.14287C19.2895 6.14287 15.5752 15.5714 15.5752 15.5714C15.5752 15.5714 16.1466 10.2857 12.2895 10C6.86095 9.7143 1.28952 23.4286 1.43238 35.8572C1.57523 39.8572 6.43238 39.1429 6.14666 36C5.86095 30.4286 9.00381 17.1429 11.8609 17.1429Z" fill="#57B3F9"/>
</g>
<defs>
<clipPath id="clip0_1_2058">
<rect width="100" height="44.2857" fill="white"/>
</clipPath>
</defs>
</svg>

<svg xmlns="http://www.w3.org/2000/svg" width="142.222" height="64" fill="none" viewBox="0 0 100 45"><g clip-path="url(#a)"><path fill="#57B3F9" d="M85.147 29.143C49.289 26.286 19.718 35 13.004 38.286c-3.714 1.714-4 3.857-3.429 5 .429.857 2.286 1.428 4.143.428 14.286-7.714 43-13.857 71.429-12.143a1.28 1.28 0 0 0 1.285-1.285c0-.572-.571-1.143-1.285-1.143Zm8.857-10.857c-1.572 1.714-3.715 3-4.429 2.428-.714-.571 0-2.714 0-2.714 3.572-2.286 10.429-8.143 10.429-12.714 0-4.143-3.715-5.429-7.572-1.572C89.29 7.143 87.004 11.43 85.718 16c-2 2-5.286 4.571-8.143 4.571-1.571 0-1.857-1.142-1.714-2.571 2.428 0 9.286-2 9.286-7.714 0-1-.429-1.857-1.143-2.572-.715-.714-1.572-1-2.572-.857-3.142 0-7 3.143-9 7.714-.428-.142-1-.285-1.428-.571.571-1.143.857-2.286 1.285-3.429.429-2.428-.571-3.857-2.428-3.571-1.286 0-2.714 1.143-3.143 3.571-.143 1.286.143 2.572.572 3.572-.858 2.714-4.286 6-5.43 5.857-1.142-.143.144-4.857 1.287-8.429.714-.714 1.143-1.428 1.571-2.428.286-.714.143-1.572-.571-1.857-1.715-.715-3.715.143-4.429 1.857-.429.857-.857 1.714-1.286 2.714-1 1.143-2.428 2.714-2.857 2.572-.571-.429 1.572-3.286 1.286-5-.143-1.286-1.429-2.286-2.714-2.143-2 .285-4.429 4-4.429 4 .286-.715.429-1.429.571-2.143-.142-1.429-2.714-2-4 .571-.857 2.429-1.571 5-1.857 7.572-.571 1.143-2.714 4.571-4.428 4.714-1.429.143.285-6.143.571-6.429.714-1.142 1.714-3.571 1.572-4.714 0-.571-.143-1-.572-1.286-.428-.285-1-.428-1.428-.285-.858.285-1.572.857-2 1.571-.572-.714-1.572-1.143-2.572-1-5.714.572-9.286 10.572-8.857 15.286.286 2.571 1.572 4.143 3.714 3.714 2.429-.286 4.429-4 4.429-4s.571 3 3.286 2.714c2-.571 3.714-1.857 5-3.571 0 .143-.143.286-.143.571-.429 2.572 3.714 2.286 4 .286 1.285-9.571 4.428-13.428 5.285-13.428.715 0-2 4.428-.428 6.285 1.286 1.429 3.428.286 5.286-1.285-.286 1.142-.429 2.428-.572 3.571-.143 2.714.857 4.857 3.429 4.714 3.428-.143 7-4.428 9.428-8.428.572.428 1.286.714 2 .857-.285 1-.285 2-.285 2.857.142 3.143 2.285 4.286 4.857 4.143 2.857-.143 6.285-2.286 8.571-4.429 0 .143 0 .286-.143.286-.142 1.571.143 4.286 2.286 4.429 2.429.142 6.714-2.286 8.857-5 1.572-.858-.285-2.572-1.571-1.143Zm2.285-12.857c.286 0 .429.285.429.571 0 2.714-6.571 8.286-6.571 8.286s4.285-8.857 6.142-8.857ZM80.29 11c.286 0 .429 0 .572.286.143.285.143.428.143.571 0 1.572-2 2.714-4.286 2.714C78.004 12.714 79.29 11 80.29 11Zm-44.285 4.143c-.143 1.571-3 8.857-4.429 8.857-1.857.143 1-10.143 4-10.143.572 0 .572.429.429 1.286Zm-24.143 2c1.857 0-1.572 9.571-1.143 13.714.429 4.143 5 3 4.714.572-.571-4.143 2.286-17.143 5-17.143 2 0-2.285 8.857-1.428 14.428.571 3.572 5.428 2.572 4.857.143-1.572-7.286 3.571-14.286 2.857-19.428-.286-2.143-1.571-3.286-2.857-3.286-4.572 0-8.286 9.428-8.286 9.428s.572-5.285-3.285-5.571c-5.429-.286-11 13.429-10.858 25.857.143 4 5 3.286 4.715.143-.286-5.571 2.857-18.857 5.714-18.857Z"/></g><defs><clipPath id="a"><path fill="#fff" d="M0 0h100v44.286H0z"/></clipPath></defs></svg>
